X:120
T: Across the Fence
S: "First Collection of Traditional Irish Music" (M.Mulvihill)
C: B.McGlinchey
Z: B.Black
L: 1/8
M: C|
R: hornpipe
K: G
(3DEF|G2 BG ABcA|dg (3gfg dBGB|cBcd BGDG|\
(3cBA BG AF (3FEF|
GDB,D G,B,DG|BGBc dBGB|dg (3Bcd edcF|AG (3AGF G2 :|
AG|FDA,D FAcA|BGDG Bcdg|ec (3cbc dB (3BcB|\
(3cBA ag fdcA|
DG (3BcB Dc (3cBc|d2 (3edc dBGB|dg (3Bcd edcF|\
AGGF G2 :|
Bc|dggf g2 bg|dg (3gfg agfg|ea (3bag agfe|ed^ce d2 dc|
(3Bcd BG (3ABc AF|GDB,D GABc|dg (3Bcd edcF|AG (3AGF G2 :|
